icons/svg/text-highlight-color-accent.svg

<svg width="24" height="24" viewBox="0 0 24 24" fill="none" xmlns="http://www.w3.org/2000/svg">
<path fill-rule="evenodd" clip-rule="evenodd" d="M7.75 3.75C5.54086 3.75 3.75 5.54086 3.75 7.75V16.25C3.75 18.4591 5.54086 20.25 7.75 20.25H16.25C18.4591 20.25 20.25 18.4591 20.25 16.25V7.75C20.25 5.54086 18.4591 3.75 16.25 3.75H7.75ZM10.7357 12.1866L12 9.29477L13.2643 12.1866H10.7357ZM10.7341 14.6866H13.2659L14.1465 16.701C14.5337 17.5866 15.5654 17.9906 16.451 17.6035C17.3366 17.2163 17.7406 16.1845 17.3535 15.299L13.962 7.54161C13.2091 5.81947 10.7909 5.81945 10.038 7.54161L6.64654 15.299C6.25938 16.1845 6.66342 17.2163 7.54899 17.6035C8.43455 17.9906 9.4663 17.5866 9.85346 16.701L10.7341 14.6866ZM13.0458 7.94219L16.4372 15.6996C16.6031 16.0791 16.43 16.5213 16.0504 16.6872C15.6709 16.8531 15.2287 16.68 15.0628 16.3004L13.9201 13.6866H10.0799L8.9372 16.3004C8.77127 16.68 8.32909 16.8531 7.94956 16.6872C7.57004 16.5213 7.39688 16.0791 7.5628 15.6996L10.9542 7.94219C11.3577 7.01927 12.6423 7.01927 13.0458 7.94219Z" fill="currentColor"/>
</svg>

<svg xmlns="http://www.w3.org/2000/svg" width="24" height="24" fill="none" viewBox="0 0 24 24"><path fill="currentColor" fill-rule="evenodd" d="M7.75 3.75a4 4 0 0 0-4 4v8.5a4 4 0 0 0 4 4h8.5a4 4 0 0 0 4-4v-8.5a4 4 0 0 0-4-4zm2.986 8.437L12 9.295l1.264 2.892zm-.002 2.5h2.532l.88 2.014a1.75 1.75 0 0 0 3.207-1.402l-3.391-7.757c-.753-1.723-3.171-1.723-3.924 0l-3.391 7.757a1.75 1.75 0 0 0 3.206 1.402zm2.312-6.745 3.391 7.758a.75.75 0 1 1-1.374.6l-1.143-2.613h-3.84L8.937 16.3a.75.75 0 1 1-1.374-.6l3.391-7.758a1.136 1.136 0 0 1 2.092 0" clip-rule="evenodd"/></svg>
